uber.svg

<svg viewBox="0 0 24 24" xmlns="http://www.w3.org/2000/svg"><path d="M11.9854 0C5.63805 0 0.44265 4.9281 0.01465 11.1667L8.61865 11.1667L8.61865 8.9168C8.61865 8.7609 8.74625 8.6333 8.90215 8.6333L15.0686 8.6333C15.2244 8.6333 15.352 8.7609 15.352 8.9168L15.352 15.0832C15.352 15.2391 15.2244 15.3667 15.0686 15.3667L8.90215 15.3667C8.74625 15.3667 8.61865 15.2391 8.61865 15.0832L8.61865 12.8333L0.01465 12.8333C0.44265 19.0719 5.63805 24 11.9854 24C18.6128 24 23.9854 18.6274 23.9854 12C23.9854 5.3726 18.6128 0 11.9854 0" fill="#000000"/></svg>

<svg viewBox="0 0 24 24" xmlns="http://www.w3.org/2000/svg"><path d="M11.985 0C5.638 0 .443 4.928.015 11.167h8.604v-2.25c0-.156.127-.284.283-.284h6.167c.155 0 .283.128.283.284v6.166a.284.284 0 0 1-.283.284H8.902a.284.284 0 0 1-.283-.284v-2.25H.015C.443 19.072 5.638 24 11.985 24c6.628 0 12-5.373 12-12s-5.372-12-12-12"/></svg>
